{
  "type": "map",
  "version": "1.10",
  "tiledversion": "1.11.0",
  "orientation": "orthogonal",
  "renderorder": "right-down",
  "infinite": false,
  "width": 13,
  "height": 11,
  "tilewidth": 64,
  "tileheight": 64,
  "nextlayerid": 5,
  "nextobjectid": 1,
  "tilesets": [
    {
      "firstgid": 1,
      "source": "ship.tsj"
    }
  ],
  "layers": [
    {
      "id": 1,
      "name": "background",
      "type": "tilelayer",
      "width": 13,
      "height": 11,
      "x": 0,
      "y": 0,
      "opacity": 1,
      "visible": true,
      "data": [
        18,
        19,
        18,
        19,
        18,
        19,
        18,
        19,
        18,
        19,
        18,
        19,
        18,
        19,
        18,
        19,
        18,
        19,
        18,
        19,
        18,
        19,
        18,
        19,
        18,
        19,
        18,
        19,
        18,
        19,
        18,
        19,
        18,
        19,
        18,
        19,
        18,
        19,
        18,
        19,
        18,
        19,
        18,
        19,
        18,
        19,
        18,
        19,
        18,
        19,
        18,
        19,
        18,
        19,
        18,
        19,
        18,
        19,
        18,
        19,
        18,
        19,
        18,
        19,
        18,
        19,
        18,
        19,
        18,
        19,
        18,
        19,
        18,
        19,
        18,
        19,
        18,
        19,
        18,
        19,
        18,
        19,
        18,
        19,
        18,
        19,
        18,
        19,
        18,
        19,
        18,
        19,
        18,
        19,
        18,
        19,
        18,
        19,
        18,
        19,
        18,
        19,
        18,
        19,
        18,
        19,
        18,
        19,
        18,
        19,
        18,
        19,
        18,
        19,
        18,
        19,
        18,
        19,
        18,
        19,
        18,
        19,
        18,
        19,
        18,
        19,
        18,
        19,
        18,
        19,
        18,
        19,
        18,
        19,
        18,
        19,
        18,
        19,
        18,
        19,
        18,
        19,
        18
      ]
    },
    {
      "id": 2,
      "name": "floor",
      "type": "tilelayer",
      "width": 13,
      "height": 11,
      "x": 0,
      "y": 0,
      "opacity": 1,
      "visible": true,
      "data": [
        0,
        0,
        0,
        0,
        0,
        0,
        0,
        0,
        0,
        0,
        0,
        0,
        0,
        0,
        17,
        10,
        10,
        10,
        10,
        10,
        10,
        10,
        10,
        10,
        14,
        0,
        0,
        13,
        1,
        3,
        2,
        1,
        1,
        3,
        2,
        1,
        1,
        11,
        0,
        0,
        13,
        1,
        1,
        3,
        2,
        1,
        1,
        3,
        2,
        1,
        11,
        0,
        0,
        13,
        2,
        5,
        5,
        3,
        9,
        1,
        1,
        3,
        2,
        11,
        0,
        0,
        13,
        3,
        2,
        1,
        1,
        3,
        2,
        1,
        1,
        3,
        11,
        0,
        0,
        13,
        2,
        1,
        1,
        1,
        2,
        1,
        1,
        4,
        4,
        11,
        0,
        0,
        13,
        1,
        1,
        1,
        2,
        1,
        1,
        1,
        4,
        4,
        11,
        0,
        0,
        13,
        1,
        1,
        2,
        1,
        1,
        1,
        2,
        7,
        4,
        11,
        0,
        0,
        16,
        12,
        12,
        12,
        12,
        12,
        12,
        12,
        12,
        12,
        15,
        0,
        0,
        0,
        0,
        0,
        0,
        0,
        0,
        0,
        0,
        0,
        0,
        0,
        0
      ]
    },
    {
      "id": 3,
      "name": "structure",
      "type": "tilelayer",
      "width": 13,
      "height": 11,
      "x": 0,
      "y": 0,
      "opacity": 1,
      "visible": true,
      "data": [
        0,
        0,
        0,
        0,
        0,
        0,
        0,
        0,
        0,
        0,
        0,
        0,
        0,
        0,
        26,
        30,
        30,
        30,
        0,
        0,
        0,
        30,
        30,
        30,
        32,
        0,
        0,
        25,
        0,
        0,
        0,
        0,
        0,
        0,
        0,
        0,
        0,
        25,
        0,
        0,
        25,
        0,
        0,
        0,
        0,
        0,
        0,
        0,
        0,
        0,
        25,
        0,
        0,
        25,
        0,
        0,
        0,
        0,
        0,
        0,
        0,
        0,
        0,
        25,
        0,
        0,
        27,
        30,
        30,
        30,
        30,
        43,
        30,
        34,
        30,
        30,
        33,
        0,
        0,
        25,
        0,
        0,
        0,
        0,
        0,
        0,
        25,
        0,
        0,
        25,
        0,
        0,
        25,
        0,
        0,
        0,
        0,
        0,
        0,
        45,
        0,
        0,
        38,
        0,
        0,
        25,
        0,
        0,
        0,
        0,
        0,
        0,
        25,
        0,
        0,
        25,
        0,
        0,
        23,
        30,
        30,
        30,
        30,
        30,
        30,
        31,
        30,
        30,
        29,
        0,
        0,
        0,
        0,
        0,
        0,
        0,
        0,
        0,
        0,
        0,
        0,
        0,
        0
      ]
    },
    {
      "id": 4,
      "name": "prop",
      "type": "tilelayer",
      "width": 13,
      "height": 11,
      "x": 0,
      "y": 0,
      "opacity": 1,
      "visible": true,
      "data": [
        0,
        0,
        0,
        0,
        0,
        0,
        0,
        0,
        0,
        0,
        0,
        0,
        0,
        0,
        0,
        0,
        0,
        0,
        50,
        51,
        52,
        0,
        0,
        0,
        0,
        0,
        0,
        0,
        0,
        0,
        0,
        53,
        54,
        55,
        0,
        0,
        0,
        0,
        0,
        0,
        0,
        0,
        56,
        0,
        0,
        0,
        0,
        0,
        60,
        0,
        0,
        0,
        0,
        0,
        0,
        0,
        0,
        0,
        0,
        0,
        0,
        0,
        0,
        0,
        0,
        0,
        0,
        0,
        0,
        0,
        0,
        0,
        0,
        0,
        0,
        0,
        0,
        0,
        0,
        0,
        0,
        0,
        0,
        0,
        0,
        0,
        0,
        0,
        64,
        0,
        0,
        0,
        0,
        62,
        0,
        0,
        63,
        61,
        0,
        0,
        0,
        0,
        0,
        0,
        0,
        0,
        0,
        62,
        0,
        0,
        0,
        0,
        0,
        0,
        0,
        0,
        0,
        0,
        0,
        0,
        0,
        0,
        0,
        0,
        0,
        0,
        0,
        0,
        0,
        0,
        0,
        0,
        0,
        0,
        0,
        0,
        0,
        0,
        0,
        0,
        0,
        0,
        0
      ]
    }
  ]
}
